X: 8
T: No_17_Song_of_Gift_Dance.krn
N: Derived from No_17_Song_of_Gift_Dance.krn
%%abc-version 2.0
%%abcx-abcm2ps-target-version 5.9.1 (29 Sep 2008)
%%abc-creator hum2abc beta
%%abcx-conversion-date 2019/03/15 08:27:55
%%humdrum-veritas 2808997633
%%humdrum-veritas-data 1385937757
%%linebreak <none>
%%barnumbers 0
L: 1/8
M: 2/4
%%staves {1 2}
V: 1 clef=treble
V: 2 clef=bass
K: G
[V:1] [K:clef=treble][M:2/4]GGG2 | 
[V:2] [K:clef=bass][M:2/4](3G,, z G,, (3G,, z G,, | 
[V:1] DD DD | 
[V:2] (3G,, z G,,z2 | 
[V:1] DDD2 | 
[V:2] z4 | 
[V:1] GGG2 | 
[V:2] z4 | 
[V:1] DD DD | 
[V:2] z4 | 
[V:1] DD DD | 
[V:2] z4 | 
[V:1] GDD2 | 
[V:2] z4 | 
[V:1] CC DB, | 
[V:2] z4 | 
[V:1] B,2G,2 | 
[V:2] z4 | 
[V:1] [M:3/4]G,G, G,G, G,G, | 
[V:2] [M:3/4]z6 | 
[V:1] [M:2/4]B,B,B,2 | 
[V:2] [M:2/4]z4 | 
[V:1] [M:3/4]G,2G,G, G,G, | 
[V:2] [M:3/4]z6 | 
[V:1] G,6 | 
[V:2] z6 | 
[V:1] [M:2/4]G,G,z2 | 
[V:2] [M:2/4]z4 | 
[V:1] DDD2 | 
[V:2] z4 | 
[V:1] D2DB, | 
[V:2] z4 | 
[V:1] B,2G,G, | 
[V:2] z4 | 
[V:1] [M:3/4]G,G, G,G, G, z | 
[V:2] [M:3/4]z6 | 
[V:1] [M:2/4]B,B, B, z | 
[V:2] [M:2/4]z4 | 
[V:1] [M:3/4]G,2G,G, G,G, | 
[V:2] [M:3/4]z6 | 
[V:1] B,6 | 
[V:2] z6 | 
[V:1] B,6 |]  
[V:2] z6 |]  



